X:1
T:The Garden of My Heart
T:The Garden of My Heart 
T:Haldor Lillenas
T:Haldor Lillenas, 1919
T:Public Domain Courtesy of the Cyber Hymnal™
T:Public Domain Courtesy of the Cyber Hymnal™
C:Haldor Lillenas
Z:Public Domain
Z:Courtesy of the Cyber Hymnal™
%%score 1 ( 2 3 )
L:1/8
Q:1/4=90
M:6/8
K:Ab
V:1 treble 
V:2 bass 
V:3 bass 
V:1
 [CE]/[CA]/ | [Ec][Ec][Ec] [Ec][Fd][Ec] | [DB]3- [DB]2 [DG]/[CA]/ | [DB][DB][DB] [DB][Ec][DB] | %4
w: 1.~There’s a|sac- red and hal- lowed re-|treat, * Where my|soul finds a fel- low- ship|
w: 2.~There is|naught can dis- turb or mo-|lest, * There my|spir- it finds com- fort and|
w: 3.~Shut a-|way from earth’s strife and its|din, * And pro-|tect- ed from soul stain- ing|
w: 4.~There the|dove of sweet peace al- ways|sings, * And my|faith ev- er trust- ing- ly|
 [CA]3- [CA]2 [CA]/[DB]/ | [Ec][Ec][Ec] [_Ge][Fd][Ec] | %6
w: sweet, * Where the|Lord of my life I may|
w: rest, * And my|soul is no long- er dis-|
w: sin, * For my|Sav- ior is dwell- ing with-|
w: clings; * And the|chime of sweet hap- pi- ness|
 [Fd]3- [Fd]2 [FA]/[_FB]/ [Ec]2 [CE] !fermata![DB]2 [CA] | [CA]3- [CA]2 || %8
w: meet, * In the gar- den of my|heart. *|
w: tressed * In the gar- den of my|heart. *|
w: in, * In the gar- den of my|heart. *|
w: rings * In the gar- den of my|heart. *|
"^Refrain" [Ece]/[=D=B=d]/ | [Ece]>[DBd][CAc] [CEc]2 [A,CA] | %10
w: ||
w: ||
w: ||
w: ||
 [B,=DB]2 [Dc=d] !fermata![DBd]2 [_DB_d]/[C=Ac]/ | [DBd]>[EGe][DFd] [CEc]2 [B,DB] | %12
w: ||
w: ||
w: ||
w: ||
 [A,CA]2 [DBd] !fermata![CAc]2 [_GA_g] | [FAf][=EG=e][FAf] [FBf][FAf] | [DFd] | %15
w: |||
w: |||
w: |||
w: |||
 [CEc][=B,=D=B][CEc] [Ece]<!fermata![Ece][F=df]/[Fdf]/ | [Ece]2 [CEc] !fermata![DBd]2 [CAc] | %17
w: ||
w: ||
w: ||
w: ||
 [CAc]3- [CAc]4 |] %18
w: |
w: |
w: |
w: |
V:2
 [A,,A,]/[A,,A,]/ | [A,,A,][A,,A,][A,,A,] [A,,A,][A,,A,][A,,A,] | [E,G,]3- [E,G,]2 [E,B,]/[E,A,]/ | %3
w: ~ ~|~ ~ ~ ~ ~ ~|~ * ~ ~|
 [E,G,][E,G,][E,G,] [E,G,][E,A,][E,G,] | [A,,A,]3- [A,,A,]2 [A,,A,]/[A,,A,]/ | %5
w: ~ ~ ~ ~ ~ ~|~ * ~ ~|
 [A,,A,][A,,A,][A,,A,] [A,,A,][A,,A,][A,,A,] | %6
w: ~ ~ ~ ~ ~ ~|
 [D,A,]3- [D,A,]2 [D,A,]/[D,A,]/ [E,A,]2 [E,A,] !fermata![E,G,]2 E, | [A,,E,]3- [A,,E,]2 || %8
w: ~ * ~ ~ ~ ~ ~ ~|~ *|
 [A,,A,]/[A,,A,]/ | [A,,A,]>[A,,A,][A,,A,] [A,,A,]2 [E,A,] | %10
w: In the|cool of the day He|
 [B,,A,]2 [B,,F,] !fermata![B,,A,]2 [E,G,]/[E,^F,]/ | [E,G,]>[E,B,][E,B,] [E,A,]2 [E,G,] | %12
w: walks with me, In the|rose bor- dered way He|
 [E,A,]2 [E,G,] !fermata![A,,A,]2 [C,A,] | [D,A,][D,A,][D,A,] [D,A,][D,D] | [D,A,] | %15
w: talks with me; In|love’s ho- ly un- ion,|And|
 A,A,A, [A,,A,]<!fermata![A,,A,][D,A,]/[D,A,]/ | [E,A,]2 [E,A,] !fermata![E,G,]2 [A,,A,] | %17
w: sac- red com- mun- ion, In the|gar- den of my|
 [A,,E,]3- [A,,E,]4 |] %18
w: heart. *|
V:3
 x | x6 | x6 | x6 | x6 | x6 | x11 E, | x5 || x | x6 | x6 | x6 | x6 | x5 | x | A,A,A, x3 | x6 | %17
 x7 |] %18

